src/images/email.svg

<svg width="45" height="35" viewBox="0 0 45 35" fill="none" xmlns="http://www.w3.org/2000/svg">
<rect x="0.486572" width="43.6558" height="35" rx="4" fill="#F2E189" fill-opacity="0.66"/>
<g clip-path="url(#clip0_202_204)">
<path d="M30.7165 14.7852C31.8508 15.2281 33.1354 15.3592 34.3719 15.1583V25.3333C34.3719 25.5764 34.2514 25.8096 34.037 25.9815C33.8225 26.1534 33.5317 26.25 33.2285 26.25H12.6479C12.3446 26.25 12.0538 26.1534 11.8394 25.9815C11.625 25.8096 11.5045 25.5764 11.5045 25.3333V10.6667C11.5045 10.4235 11.625 10.1904 11.8394 10.0185C12.0538 9.84657 12.3446 9.75 12.6479 9.75H27.626C27.5505 10.0461 27.5117 10.3532 27.5117 10.6667C27.5098 11.7557 27.9935 12.8094 28.8757 13.6376L23.0079 17.7094L15.6744 12.7182L14.1949 14.1152L23.0217 20.1239L30.7165 14.7852ZM33.2285 13.4167C32.778 13.4167 32.332 13.3455 31.9158 13.2073C31.4997 13.0691 31.1216 12.8666 30.803 12.6112C30.4845 12.3558 30.2319 12.0527 30.0595 11.719C29.8871 11.3854 29.7984 11.0278 29.7984 10.6667C29.7984 10.3055 29.8871 9.94793 30.0595 9.61428C30.2319 9.28064 30.4845 8.97748 30.803 8.72212C31.1216 8.46676 31.4997 8.2642 31.9158 8.126C32.332 7.98779 32.778 7.91666 33.2285 7.91666C34.1382 7.91666 35.0107 8.2064 35.6539 8.72212C36.2972 9.23785 36.6586 9.93732 36.6586 10.6667C36.6586 11.396 36.2972 12.0955 35.6539 12.6112C35.0107 13.1269 34.1382 13.4167 33.2285 13.4167Z" fill="#FFB422"/>
</g>
<defs>
<clipPath id="clip0_202_204">
<rect width="27.4408" height="22" fill="white" transform="translate(9.21777 7)"/>
</clipPath>
</defs>
</svg>

<svg xmlns="http://www.w3.org/2000/svg" width="45" height="35" fill="none"><rect width="43.656" height="35" x=".487" fill="#F2E189" fill-opacity=".66" rx="4"/><g clip-path="url(#a)"><path fill="#FFB422" d="M30.716 14.785a7.036 7.036 0 0 0 3.656.373v10.175c0 .243-.12.477-.335.649a1.301 1.301 0 0 1-.809.268h-20.58a1.3 1.3 0 0 1-.809-.268.836.836 0 0 1-.335-.649V10.667c0-.243.121-.477.335-.649a1.3 1.3 0 0 1 .809-.268h14.978a3.705 3.705 0 0 0-.114.917c-.002 1.089.482 2.142 1.364 2.97l-5.868 4.072-7.334-4.99-1.48 1.396 8.828 6.009 7.695-5.339Zm2.512-1.368c-.45 0-.896-.072-1.312-.21a3.584 3.584 0 0 1-1.113-.596 2.798 2.798 0 0 1-.744-.892 2.285 2.285 0 0 1-.26-1.052c0-.361.088-.72.26-1.053.173-.333.425-.637.744-.892a3.585 3.585 0 0 1 1.113-.596c.416-.138.862-.21 1.312-.21.91 0 1.783.29 2.426.806.643.516 1.005 1.215 1.005 1.945 0 .729-.362 1.428-1.005 1.944-.643.516-1.516.806-2.426.806Z"/></g><defs><clipPath id="a"><path fill="#fff" d="M9.218 7h27.44v22H9.219z"/></clipPath></defs></svg>
